X:1
T:Title
%%score { ( 1 3 ) | ( 2 4 ) }
L:1/8
Q:1/4=100
M:4/4
K:C
V:1 treble nm="Grand Piano"
V:3 treble 
V:2 bass 
V:4 bass 
V:1
 [EG]>[EG] [_E^F]>[=EG] [=FA]>[EG] [Ec]>E | G2 F2 F4 | F>F E>F B>A G>F | EE [_Ec]2 [=EG]4 | %4
w: M.~L.~McPhail * * * * * * *||||
 [EG]>[EG] [_E^F]>[=EG] [=FA]>[EG] [Ge]>[Ec] | B2 A2 A4 | [^Fd]>[Fc] [FB]>[FA] G>G A>B | [Ec]6 z2 | %8
w: ||||
 [EG]4 [CE]4 | [EG]4 [DF]4 | D>E F>G B>A G>F | z G, [DF]2 [_EA]2 [=EG]2 | [EG]4 [Ge]4 | %13
w: |||||
 [Ac]4 [FA]4 | [^Fd]>[Fc] [FB]>[FA] G>G A>[=FB] | %15
w: ||
[M:11/8] [Ec]-[Ec]-[Ec]-[Ec]-[Ec]-[Ec]- [Ec]3 z2 |] %16
w: |
V:2
 [C,C]>[C,C] [C,C]>[C,C] [C,C]>[C,C] [C,C]>[C,G,C] | [G,B,E]2 [G,B,D]2 [G,B,D]4 | %2
 [G,B,D]>[G,B,D] [G,_B,^C]>[G,=B,D] [G,DF]>[G,=CF][K:bass] [G,B,E]>[G,B,D] | CG, [C,^F,]2 z2 C2 | %4
 [C,C]>[C,C] [C,C]>[C,C] [C,C]>[C,C] [C,C]>[C,C] | [F,CF]2 [F,CF]2 [F,CF]4 | %6
 [D,D]>[D,D] [D,D]>[D,C][K:treble] [G,B,F]>[G,B,F] [G,CF]>[G,DF] | [C,C]6 z2 | %8
 [C,C]>C, C,>C, C,>C, C,2 | G,>G, G,>G, G,>G, G,2 | %10
 [G,B,]>[K:treble][G,C] [G,B,D]>[G,B,E] [G,DF]>[G,CF][K:bass] [G,B,E]>[G,B,D] | %11
 .[C,C]2 [C,G,]2 [C,^F,]2 [C,G,]2 | [C,C]>C, C,>C, [C,C]>C, C,2 | F,>F, F,>F, F,>F, F,>[F,CF] | %14
 [D,D]>[D,D] [D,D]>[D,C][K:treble] [G,B,F]>[G,B,F] [G,CF]>[K:bass][G,,G,] | %15
[M:11/8] [C,G,]-[C,G,]-[C,G,]-[C,G,]-[C,G,]-[C,G,]- [C,G,]3 z2 |] %16
V:3
 x8 | x8 | x8 | z4 G,2 z2 | x8 | x8 | x8 | x8 | z z/ C/ C>C G,>G, G,2 | B,>B, B,>B, B,>B, B,2 | %10
 x8 | E2 z2 z4 | z z/ C/ C>C z z/ C/ C2 | C>C C>C C>C C>A | x8 |[M:11/8] x11 |] %16
V:4
 x8 | x8 | x6[K:bass] x2 | C,2 z2 C,4 | x8 | x8 | x4[K:treble] x4 | x8 | x8 | x8 | %10
 x3/2[K:treble] x9/2[K:bass] x2 | x8 | x8 | x8 | x4[K:treble] x7/2[K:bass] x/ |[M:11/8] x11 |] %16

